X:1
T:When Winds Are Raging
T:When Winds Are Raging
T:Charles Beecher, 1855
T:Harriet Beecher Stowe, 1855
T:Public Domain Courtesy of the Cyber Hymnal™
C:Charles Beecher, 1855
Z:Public Domain
Z:Courtesy of the Cyber Hymnal™
%%score ( 1 2 ) ( 3 4 )
L:1/8
M:2/2
K:G
V:1 treble 
V:2 treble 
V:3 bass 
V:4 bass 
V:1
 D2 | [DG]4 [DA]4 | [DB]2 [DA]2 [EA]2 [EB]2 | c4 [GB]4 | [GB]4 [FA]2 [GB]2 | [Bd]2 [GB]2 D2 [Bd]2 | %6
w: 1.~When|winds are|rag- ing o’er the|up- per|o- cean, And|bil- lows wild con-|
w: 2.~Far,|far be-|neath, the noise of|tem- pests|di- eth, And|sil- ver waves chime|
w: 3.~So|to the|heart that knows Thy|love, O|Pur- est! There|is a tem- ple,|
w: 4.~Far,|far a-|way, the roar of|pass- ion|di- eth, And|lov- ing thoughts rise|
w: 5.~O|Rest of|rests! O Peace, se-|rene, e-|ter- nal! Thou|ev- er liv- est,|
 [Ac]2 [FA]2 D2 [Ac]2 | ([GB]4 [FA]2) [Dd]2 | D3 D D2 D2 | [A,E]2 [DF]2 [DG]2 [DA]2 | %10
w: tend with ang- ry|roar, * ’Tis|said, far down, be-|low the wild com-|
w: ev- er peace- ful-|ly, * And|no rude storm, how|fierce so e’er it|
w: sac- red ev- er-|more, * And|all the bab- ble|of life’s ang- ry|
w: calm and peace- ful-|ly, * And|no rude storm, how|fierce so e’er it|
w: and Thou chang- est|never. * And|in the sec- ret|of Thy pre- sence|
 [Dc]4 [DB]2 [GB]2 | [GB]2 [GB]2 [Gd]2 [DB]2 | [DB]3 [DA] [DG]2 [DA]2 | [DG]6 |] %14
w: mo- tion, That|peace- ful still- ness|reign- eth ev- er-|more.|
w: fli- eth, Dis-|turbs the Sab- bath|of that deep- er|sea.|
w: voic- es Dies|in hushed still- ness|at its peace- ful|door.|
w: fli- eth, Dis-|turbs the soul that|dwells, O Lord, in|Thee.|
w: dwell- eth Full-|ness of joy, for-|ev- er and for-|e’er.|
V:2
 D2 | x8 | x8 | (E2 F2) x4 | x8 | x4 D2 x2 | x4 D2 x2 | x8 | D3 D D2 D2 | x8 | x8 | x8 | x8 | x6 |] %14
V:3
 [G,B,]2 | [G,B,]4 [G,C]4 | [G,D]2 [G,B,]2 [C,A,]2 [B,,^G,]2 | (A,2 D2) D4 | [D,D]4 [D,D]2 D,2 | %5
 D,2 D,2 D,2 D,2 | D,2 D,2 D,2 D,2 | D,6 [D,D]2 | D,3 D, D,2 D,2 | %9
 [^C,A,]2 [=C,A,]2 [B,,G,]2 [A,,F,]2 | [G,,A,]4 [G,,G,]2 [G,D]2 | [G,D]2 [G,D]2 [B,D]2 [G,D]2 | %12
 [D,D]3 [D,C] [D,B,]2 [D,C]2 | [G,,B,]6 |] %14
V:4
 x2 | x8 | x8 | A,,4 (G,,2 B,,2) | x6 D,2 | D,2 D,2 D,2 D,2 | D,2 D,2 D,2 D,2 | D,6 x2 | %8
 D,3 D, D,2 D,2 | x8 | x8 | x8 | x8 | x6 |] %14

